proprietary/assets/icons/op-kantoor/document-met-vinkje.svg

<svg height="64" viewBox="0 0 64 64" width="64" xmlns="http://www.w3.org/2000/svg"><path d="m0 0h64v64h-64z" fill="none"/><path d="m50 7h-21.1714c-.5307 0-1.0395.2109-1.4145.5859l-14.8282 14.8282c-.375.375-.5859.8838-.5859 1.4145v31.1714c0 1.0996.8999 2 2 2h36c1.1045 0 2-.8955 2-2v-46c0-1.1045-.8955-2-2-2zm-3 45h-30v-26.7082l-3.1484-.9324c-.3412-.109-.2185-.3594-.2185-.3594h14.3669c.5522 0 1-.4478 1-1v-14.3659s.2509-.1096.3599.231l.9316 3.1349h16.7085z"/><path d="m22.5983 32.4075c-.6188.5187-.7677 1.4093-.3538 2.1013l7.0038 11.6886c.2957.4933.828.7961 1.4028.7979h.006c.5724 0 1.1048-.2987 1.4029-.7891l10.7004-17.7112c.4411-.725.2567-1.6667-.4247-2.1717-.6838-.5051-1.6371-.4076-2.2026.2247l-9.6227 10.8843-5.7819-5.0084c-.6114-.5286-1.514-.5358-2.1302-.0164z"/></svg>

<?xml version="1.0" encoding="utf-8"?>
<!-- Generator: Adobe Illustrator 19.1.0, SVG Export Plug-In . SVG Version: 6.00 Build 0)  -->
<svg version="1.2" baseProfile="tiny" xmlns="http://www.w3.org/2000/svg" xmlns:xlink="http://www.w3.org/1999/xlink" x="0px"
	 y="0px" width="64px" height="64px" viewBox="0 0 64 64" xml:space="preserve">
<g id="_x36_4px_Box">
	<rect fill="none" width="64" height="64"/>
</g>
<g id="Icon">
	<g>
		<g>
			<path d="M50,7H28.8286c-0.5307,0-1.0395,0.2109-1.4145,0.5859L12.5859,22.4141C12.2109,22.7891,12,23.2979,12,23.8286V55
				c0,1.0996,0.8999,2,2,2h36c1.1045,0,2-0.8955,2-2V9C52,7.8955,51.1045,7,50,7z M47,52H17V25.2918l-3.1484-0.9324
				C13.5104,24.2504,13.6331,24,13.6331,24H28c0.5522,0,1-0.4478,1-1V8.6341c0,0,0.2509-0.1096,0.3599,0.231L30.2915,12H47V52z"/>
		</g>
		<path d="M22.5983,32.4075c-0.6188,0.5187-0.7677,1.4093-0.3538,2.1013l7.0038,11.6886c0.2957,0.4933,0.828,0.7961,1.4028,0.7979
			c0.0024,0,0.0035,0,0.006,0c0.5724,0,1.1048-0.2987,1.4029-0.7891L42.7604,28.495c0.4411-0.725,0.2567-1.6667-0.4247-2.1717
			c-0.6838-0.5051-1.6371-0.4076-2.2026,0.2247l-9.6227,10.8843l-5.7819-5.0084C24.1171,31.8953,23.2145,31.8881,22.5983,32.4075z"
			/>
	</g>
</g>
</svg>
